src/Soccer/Services/Soccer.API/_Shared/App_Data/SvgFiles/score_change_by_penalty.svg

<svg width="16" height="20" fill="none" xmlns="http://www.w3.org/2000/svg">
  <path d="M6.88379 4.021V6.39844H5.77197V0H8.21973C8.93457 0 9.50146 0.186035 9.92041 0.558105C10.3423 0.930176 10.5532 1.42236 10.5532 2.03467C10.5532 2.66162 10.3467 3.14941 9.93359 3.49805C9.52344 3.84668 8.94775 4.021 8.20654 4.021H6.88379ZM6.88379 3.12891H8.21973C8.61523 3.12891 8.91699 3.03662 9.125 2.85205C9.33301 2.66455 9.43701 2.39502 9.43701 2.04346C9.43701 1.69775 9.33154 1.42236 9.12061 1.21729C8.90967 1.00928 8.61963 0.902344 8.25049 0.896484H6.88379V3.12891Z" fill="white"/>
  <circle cx="8" cy="13.3999" r="6" fill="white" filter="url(#shadow)" />
  <path d="M8 7.3999C4.688 7.3999 2 10.0879 2 13.3999C2 16.7119 4.688 19.3999 8 19.3999C11.312 19.3999 14 16.7119 14 13.3999C14 10.0879 11.312 7.3999 8 7.3999ZM8 7.9999C9.056 7.9999 10.04 8.3179 10.868 8.8459L10.7 9.1999H8.6H8L6.968 8.6959L7.178 8.0779C7.448 8.0299 7.718 7.9999 8 7.9999ZM6.518 8.2279L6.314 8.8459L4.778 9.6139L4.028 9.7639C4.7 9.0379 5.552 8.5039 6.518 8.2279ZM8.6 9.7999H10.4L12.014 11.9539L11.264 13.4959L9.686 13.8679L7.718 11.5639L8.6 9.7999ZM4.496 10.1959L5 12.1999L4.268 14.0359L2.732 14.5639C2.648 14.1859 2.6 13.8019 2.6 13.3999C2.6 12.2599 2.954 11.2159 3.554 10.3459L4.496 10.1959ZM13.136 11.7319C13.31 12.2539 13.4 12.8179 13.4 13.3999C13.4 14.2639 13.178 15.0739 12.818 15.7999H12.2L11.696 13.7959L12.596 11.9959L13.136 11.7319ZM5.6 12.1999H7.4L9.086 14.1679L8 15.7999L6.104 16.2679L4.718 14.4139L5.6 12.1999ZM8 16.3999L9.8 17.5999L9.278 18.6319C8.864 18.7279 8.438 18.7999 8 18.7999C6.95 18.7999 5.978 18.4999 5.15 17.9779L5.846 16.9459L8 16.3999ZM12.2 16.3999H12.5C11.9 17.2999 11 18.0019 9.986 18.4039L10.4 17.5999L12.2 16.3999Z" fill="black"/>
</svg>

<svg width="16" height="20" fill="none" xmlns="http://www.w3.org/2000/svg"><path d="M6.884 4.021v2.377H5.772V0H8.22c.715 0 1.281.186 1.7.558.422.372.633.864.633 1.477 0 .627-.206 1.114-.62 1.463-.41.349-.985.523-1.726.523H6.884zm0-.892H8.22c.395 0 .697-.092.905-.277.208-.187.312-.457.312-.809 0-.345-.105-.62-.316-.826-.211-.208-.501-.315-.87-.32H6.883v2.232zM8 7.398c-3.312 0-6 2.688-6 6s2.688 6 6 6 6-2.688 6-6-2.688-6-6-6zm0 .6c1.056 0 2.04.318 2.868.846l-.168.354H8l-1.032-.504.21-.618c.27-.048.54-.078.822-.078zm-1.482.228l-.204.618-1.536.768-.75.15a5.41 5.41 0 012.49-1.536zM8.6 9.798h1.8l1.614 2.154-.75 1.542-1.578.372-1.968-2.304.882-1.764zm-4.104.396L5 12.198l-.732 1.836-1.536.528a5.324 5.324 0 01.822-4.218l.942-.15zm8.64 1.536c.174.522.264 1.086.264 1.668 0 .864-.222 1.674-.582 2.4H12.2l-.504-2.004.9-1.8.54-.264zm-7.536.468h1.8l1.686 1.968L8 15.798l-1.896.468-1.386-1.854.882-2.214zm2.4 4.2l1.8 1.2-.522 1.032c-.414.096-.84.168-1.278.168-1.05 0-2.022-.3-2.85-.822l.696-1.032L8 16.398zm4.2 0h.3c-.6.9-1.5 1.602-2.514 2.004l.414-.804 1.8-1.2z" fill="#fff"/></svg>
